brandFactory_export/3.Masa/Bebe_chupete_3Masa.svg

<?xml version="1.0" encoding="UTF-8"?>
<svg width="24px" height="24px" viewBox="0 0 24 24" version="1.1" xmlns="http://www.w3.org/2000/svg" xmlns:xlink="http://www.w3.org/1999/xlink">
    <title>3.Masa/Bebe_chupete_3Masa</title>
    <g id="Symbols" stroke="none" stroke-width="1" fill="none" fill-rule="evenodd">
        <g id="3.Masa/Bebe_chupete_3Masa" fill="#5CB615" fill-rule="nonzero">
            <path d="M18.7848739,14.0605042 C18.4722689,14.3731092 18.092437,14.6184874 17.6756303,14.8268908 C17.4672269,14.9310924 17.2588235,15.0319328 17.0268908,15.1092437 C16.4957983,15.2806723 15.9008403,15.3781513 15.2621849,15.4016807 C15.1512605,15.4084034 15.0537815,15.4252101 14.9394958,15.4252101 L8.83529412,15.4252101 C8.7210084,15.4252101 8.62352941,15.405042 8.51260504,15.4016807 C7.87058824,15.3747899 7.27563025,15.2806723 6.74789916,15.1092437 C6.51596639,15.0319328 6.30756303,14.9310924 6.09915966,14.8268908 C5.68235294,14.6184874 5.30252101,14.3764706 4.98991597,14.0605042 C4.68403361,13.6537815 4.52268908,13.092437 4.52268908,12.3630252 C4.52268908,11.6369748 4.68739496,11.0756303 4.98991597,10.6621849 C5.7092437,9.93613445 6.73445378,9.50252101 7.96470588,9.36134454 C7.92436975,9.63361345 7.89747899,9.91260504 7.89747899,10.2117647 C7.89747899,11.4823529 8.26722689,12.4773109 8.99327731,13.1731092 C9.68907563,13.8386555 10.6638655,14.1781513 11.887395,14.1781513 C13.1142857,14.1781513 14.0857143,13.8386555 14.7815126,13.1731092 C15.507563,12.4773109 15.8739496,11.4823529 15.8739496,10.2117647 C15.8739496,9.91260504 15.8504202,9.6302521 15.810084,9.36134454 C17.0403361,9.50588235 18.0621849,9.93613445 18.7848739,10.6621849 C19.0907563,11.0722689 19.2554622,11.6369748 19.2554622,12.3630252 C19.2521008,13.092437 19.087395,13.6537815 18.7848739,14.0605042 L18.7848739,14.0605042 Z M14.610084,17.4722689 C14.6033613,18.2420168 14.3210084,20.0268908 11.887395,20.0369748 C9.45042017,20.0268908 9.17142857,18.2420168 9.16470588,17.4722689 L9.15462185,16.9109244 L9.39663866,16.907563 L14.6168067,16.907563 L14.610084,17.4722689 Z M19.8907563,9.67731092 C19.8739496,9.65714286 19.8605042,9.63697479 19.8403361,9.61680672 C19.7731092,9.53613445 19.7159664,9.49243697 19.6420168,9.42184874 C19.5815126,9.36134454 19.5109244,9.29747899 19.4369748,9.24369748 C18.5563025,8.52436975 17.4336134,8.07058824 16.1361345,7.89915966 C16.6201681,7.11932773 16.8722689,6.14117647 16.8722689,4.97142857 C16.8722689,3.37478992 16.4151261,2.12773109 15.5142857,1.2605042 C14.6470588,0.426890756 13.4268908,0 11.8840336,0 C10.3411765,0 9.1210084,0.423529412 8.25714286,1.2605042 C7.35294118,2.12773109 6.89579832,3.37815126 6.89579832,4.97142857 C6.89579832,6.14117647 7.14789916,7.11932773 7.63193277,7.89915966 C6.33445378,8.07058824 5.21176471,8.52436975 4.33109244,9.24369748 C4.25378151,9.29411765 4.18655462,9.36134454 4.12605042,9.42184874 C4.05210084,9.49243697 3.99495798,9.53613445 3.92773109,9.61680672 C3.90756303,9.63697479 3.89747899,9.65714286 3.87731092,9.67731092 C3.31932773,10.3563025 3.02352941,11.2504202 3.02352941,12.3663866 C3.02352941,13.4823529 3.32268908,14.3731092 3.87731092,15.0554622 C3.89411765,15.0756303 3.90756303,15.0957983 3.92773109,15.1159664 C4.05546218,15.2470588 4.18991597,15.3714286 4.33109244,15.4857143 C4.5092437,15.6336134 4.77478992,15.805042 5.04369748,15.9663866 C5.27226891,16.1042017 5.50420168,16.2319328 5.68571429,16.3226891 L5.68571429,16.9243697 L5.69915966,17.7680672 C5.72605042,20.594958 7.36302521,23.6134454 11.8672269,23.6268908 L11.8941176,23.6268908 C16.3983193,23.6134454 18.0352941,20.594958 18.0621849,17.7680672 L18.0722689,16.9142857 L18.0722689,16.3260504 C18.2537815,16.2352941 18.4890756,16.107563 18.7142857,15.9697479 C18.9831933,15.8084034 19.2487395,15.6369748 19.4268908,15.4890756 C19.5680672,15.3747899 19.702521,15.2470588 19.8302521,15.1193277 L19.8806723,15.0588235 C20.4386555,14.3798319 20.7379272,13.4890756 20.7379272,12.3697479 C20.7445378,11.2470588 20.4487395,10.3529412 19.8907563,9.67731092 Z" id="Bebe_chupete_3Masa"></path>
        </g>
    </g>
</svg>

<svg width="24" height="24" viewBox="0 0 24 24" xmlns="http://www.w3.org/2000/svg"><path d="M18.785 14.06c-.313.313-.693.558-1.11.767a4.907 4.907 0 01-.648.282 6.547 6.547 0 01-1.765.293c-.11.006-.208.023-.323.023H8.835c-.114 0-.211-.02-.322-.023a6.634 6.634 0 01-1.765-.293 4.907 4.907 0 01-.649-.282c-.417-.209-.796-.45-1.11-.766-.305-.407-.466-.969-.466-1.698 0-.726.164-1.287.467-1.7.72-.727 1.744-1.16 2.975-1.302-.04.273-.068.552-.068.85 0 1.271.37 2.266 1.096 2.962.696.666 1.67 1.005 2.894 1.005 1.227 0 2.199-.34 2.895-1.005.726-.696 1.092-1.69 1.092-2.961 0-.3-.024-.582-.064-.85 1.23.144 2.252.574 2.975 1.3.306.41.47.975.47 1.701-.003.73-.168 1.29-.47 1.698zm-4.175 3.412c-.007.77-.289 2.555-2.723 2.565-2.437-.01-2.716-1.795-2.722-2.565l-.01-.561.242-.003h5.22l-.007.564zm5.28-7.795c-.016-.02-.03-.04-.05-.06-.067-.08-.124-.125-.198-.195a1.772 1.772 0 00-.205-.178c-.88-.72-2.003-1.173-3.3-1.345.483-.78.735-1.758.735-2.928 0-1.596-.457-2.843-1.358-3.71C14.647.427 13.427 0 11.884 0c-1.543 0-2.763.424-3.627 1.26-.904.868-1.361 2.118-1.361 3.711 0 1.17.252 2.148.736 2.928-1.298.172-2.42.625-3.3 1.345-.078.05-.145.117-.206.178-.074.07-.131.114-.198.195-.02.02-.03.04-.05.06-.559.68-.854 1.573-.854 2.69 0 1.115.299 2.006.853 2.688.017.02.03.04.05.061.128.131.263.255.404.37.178.148.444.319.713.48.228.138.46.266.642.357v.601l.013.844c.027 2.827 1.664 5.845 6.168 5.859h.027c4.504-.014 6.141-3.032 6.168-5.859l.01-.854v-.588a8.98 8.98 0 00.642-.356c.27-.162.535-.333.713-.48.141-.115.276-.243.403-.37l.05-.061c.559-.68.858-1.57.858-2.69.007-1.122-.29-2.016-.847-2.692z" fill="#5CB615" fill-rule="nonzero"/></svg>
